X:261
T:Guantanamera
Z:Jack Campin, http://www.campin.me.uk/
F:Jack Campin's Nine-Note Tunebook
% last edit 03-02-2013
S:http://www.thecubaexperience.co.uk/
F:Jack Campin's Nine-Note Tunebook
% last edit 03-02-2013cuba/guantanamera.jpg
M:C
L:1/8
Q:1/4=120
K:CMix
P:Verse
F GF|G2GF GG3|z4  z  \
G AB|c4   B3A|GG3 z
G AB|c2cc d4 |c4  z  \
d BG|F2FE D4 |C4  z||
P:Chorus
z z2|c2cc dd3|z4  z  \
B dd|c2dB cc3|z8    |
     A2Bc d4 |c4  z  \
d BG|F2FE D4 |C4  z|]

